X:1
T:Rest over Jordan
T:William Howard Doane
T:Rest over Jordan
T:Public Domain
T:Public Domain
C:William Howard Doane
Z:Public Domain
%%score ( 1 2 ) ( 3 4 )
L:1/8
M:4/4
K:D
V:1 treble 
V:2 treble 
V:3 bass 
V:4 bass 
V:1
 D[DE] | [DF]2 [DF]2 [FA]2 [^E^G][FA] | [GB]2 [GB]2 [Gd]2 [Ac][GB] | [FA]2 [Fd]>[FA] [DF]2 [CE]>D | %4
w: 1.~’Tis a|èd hope, and it cheers|my soul, I shall rest|by and by o- ver Jor-|
w: 2.~’Tis a|èd hope which my Sav-|ior gives, I shall rest|by and by o- ver Jor-|
w: 3.~With a|fast faith I will la-|bor on, I shall rest,|sweet- ly rest o- ver Jor-|
 [CE]4 [CA]2 [CA][EG] | [DF]2 [DF]2 [FA]2 [^E^G][FA] | [GB]2 [GB]2 [Bd]2 [Ac][GB] | %7
w: When my work is|done and my crown is|won, I shall rest, sweet-|
w: I shall see Him|there in His man- sion|fair, When I rest, sweet-|
w: O what joy ’twill|be the re- deemed to|see, When I rest, sweet-|
 [FA]2 [Fd]>[FA] [DF]2 [CE]>[B,D] | [CE]4 D2 ||"^Refrain" [Fd]>[Ge] | [Fd]4 [FA]2 [Fd]>[Ac] | %11
w: ly rest o- ver Jor- dan.||||
w: ly rest o- ver Jor- dan.|O- ver|dan, o-|ver Jor- dan, I|
w: ly rest, o- ver Jor- dan.||||
 [GB]4 [Gd]2 [Ac][GB] | [FA]2 [Fd]>[FA] [DF]2 [FA]>[DF] | [CE]6 [CA][EG] | %14
w: |||
w: shall rest Sweet- ly|rest by and by; ’Tis a|pre- cious hope,|
w: |||
 [DF]2 [DF]2 [FA]2 [^E^G][FA] | [GB]2 [GB]2 [Bd]2 [Ac][GB] | [FA]2 [Fd]>[FA] [DF]2 [CE]>[B,D] | %17
w: |||
w: ’tis a bless- èd hope,|I shall rest, sweet- ly|rest o- ver Jor- dan. *|
w: |||
 [CE]4 D2 |] %18
w: |
w: |
w: |
V:2
 D x | x8 | x8 | x15/2 D/ | x8 | x8 | x8 | x8 | x4 D2 || x2 | x8 | x8 | x8 | x8 | x8 | x8 | x8 | %17
w: bless-|||dan;||||||||||||||
w: bless-|||dan;|||||Jor-|||||||||
w: stead-|||dan;||||||||||||||
 x4 D2 |] %18
w: |
w: |
w: |
V:3
 [D,F,][D,G,] | [D,A,]2 [D,A,]2 [D,D]2 [D,D][D,D] | [G,D]2 [G,D]2 [G,B,]2 [G,D][G,D] | %3
 [D,D]2 [D,A,]>[D,A,] [D,A,]2 [D,G,]>[D,F,] | [A,,A,]4 [A,,A,]2 [A,,E,][C,A,] | %5
 [D,A,]2 [D,A,]2 [D,D]2 [D,D][D,D] | [G,D]2 [G,D]2 [G,D]2 [G,D][G,D] | %7
 [A,D]2 [A,D]>[A,D] A,2 [A,,A,]>[A,,A,] | (A,2 G,2) [D,F,]2 || [D,A,]>[D,A,] | %10
 [D,A,]4 [D,D]2 [D,A,]>[F,D] | [G,D]4 [G,B,]2 [G,D][G,D] | %12
 [D,D]2 [D,A,]>[D,A,] [D,A,]2 [D,D]>[D,A,] | [A,,A,]6 [A,,A,][C,A,] | %14
 [D,A,]2 [D,A,]2 [D,D]2 [D,D][D,D] | [G,D]2 [G,D]2 [G,D]2 [G,D][G,D] | %16
 [A,D]2 [A,D]>[A,D] A,2 [A,,A,]>[A,,A,] | (A,2 G,2) [D,F,]2 |] %18
V:4
 x2 | x8 | x8 | x8 | x8 | x8 | x8 | x4 A,2 x2 | A,,4 x2 || x2 | x8 | x8 | x8 | x8 | x8 | x8 | %16
 x4 A,2 x2 | A,,4 x2 |] %18

